svgs/thin/circle-0.svg

<svg xmlns="http://www.w3.org/2000/svg" viewBox="0 0 512 512"><!-- Font Awesome Pro 6.0.0-alpha2 by @fontawesome - https://fontawesome.com License - https://fontawesome.com/license (Commercial License) --><path d="M256 128C202.98 128 160 170.98 160 224V288C160 341.02 202.98 384 256 384S352 341.02 352 288V224C352 170.98 309.02 128 256 128ZM336 288C336 332.111 300.111 368 256 368S176 332.111 176 288V224C176 179.889 211.889 144 256 144S336 179.889 336 224V288ZM256 16C123.451 16 16 123.451 16 256S123.451 496 256 496S496 388.549 496 256S388.549 16 256 16ZM256 480C132.486 480 32 379.514 32 256S132.486 32 256 32S480 132.486 480 256S379.514 480 256 480Z"/></svg>

<svg xmlns="http://www.w3.org/2000/svg" viewBox="0 0 512 512"><!--! Font Awesome Pro 6.4.0 by @fontawesome - https://fontawesome.com License - https://fontawesome.com/license (Commercial License) Copyright 2023 Fonticons, Inc. --><path d="M256 16a240 240 0 1 1 0 480 240 240 0 1 1 0-480zm0 496A256 256 0 1 0 256 0a256 256 0 1 0 0 512zm0-384c-53 0-96 43-96 96v64c0 53 43 96 96 96s96-43 96-96V224c0-53-43-96-96-96zm-80 96c0-44.2 35.8-80 80-80s80 35.8 80 80v64c0 44.2-35.8 80-80 80s-80-35.8-80-80V224z"/></svg>
